Newaita-dark/.places-ubuntu/128/user-trash-full.svg

<?xml version="1.0" encoding="UTF-8"?>
<svg xmlns="http://www.w3.org/2000/svg" xmlns:xlink="http://www.w3.org/1999/xlink" width="128pt" height="128pt" viewBox="0 0 128 128" version="1.1">
<defs>
<linearGradient id="linear0" gradientUnits="userSpaceOnUse" x1="254" y1="233.5" x2="254" y2="254.666672" gradientTransform="matrix(0.250024,0,0,0.250024,-0.0000152602,53.75514)">
<stop offset="0" style="stop-color:rgb(0%,0%,0%);stop-opacity:0.27451;"/>
<stop offset="1" style="stop-color:rgb(0%,0%,0%);stop-opacity:0;"/>
</linearGradient>
<radialGradient id="radial0" gradientUnits="userSpaceOnUse" cx="450.908936" cy="189.579361" fx="450.908936" fy="189.579361" r="21.166656" gradientTransform="matrix(0.000000696681,-0.31253,-0.562554,-0.000000406154,197.938261,254.38133)">
<stop offset="0" style="stop-color:rgb(0%,0%,0%);stop-opacity:0.313725;"/>
<stop offset="0.222222" style="stop-color:rgb(0%,0%,0%);stop-opacity:0.27451;"/>
<stop offset="1" style="stop-color:rgb(0%,0%,0%);stop-opacity:0;"/>
</radialGradient>
<radialGradient id="radial1" gradientUnits="userSpaceOnUse" cx="450.908936" cy="189.579361" fx="450.908936" fy="189.579361" r="21.166656" gradientTransform="matrix(-0.000000696681,0.31253,0.562554,0.000000406154,-70.92613,-30.109915)">
<stop offset="0" style="stop-color:rgb(0%,0%,0%);stop-opacity:0.313725;"/>
<stop offset="0.222222" style="stop-color:rgb(0%,0%,0%);stop-opacity:0.27451;"/>
<stop offset="1" style="stop-color:rgb(0%,0%,0%);stop-opacity:0;"/>
</radialGradient>
<radialGradient id="radial2" gradientUnits="userSpaceOnUse" cx="450.908936" cy="189.579361" fx="450.908936" fy="189.579361" r="21.166656" gradientTransform="matrix(-0.000000696681,-0.31253,0.562554,-0.000000406154,-70.92613,254.38133)">
<stop offset="0" style="stop-color:rgb(0%,0%,0%);stop-opacity:0.313725;"/>
<stop offset="0.222222" style="stop-color:rgb(0%,0%,0%);stop-opacity:0.27451;"/>
<stop offset="1" style="stop-color:rgb(0%,0%,0%);stop-opacity:0;"/>
</radialGradient>
<radialGradient id="radial3" gradientUnits="userSpaceOnUse" cx="450.908936" cy="189.579361" fx="450.908936" fy="189.579361" r="21.166656" gradientTransform="matrix(0.000000696681,0.31253,-0.562554,0.000000406154,197.938254,-30.109917)">
<stop offset="0" style="stop-color:rgb(0%,0%,0%);stop-opacity:0.313725;"/>
<stop offset="0.222222" style="stop-color:rgb(0%,0%,0%);stop-opacity:0.27451;"/>
<stop offset="1" style="stop-color:rgb(0%,0%,0%);stop-opacity:0;"/>
</radialGradient>
<linearGradient id="linear1" gradientUnits="userSpaceOnUse" x1="254" y1="-105.166672" x2="254" y2="233.5" gradientTransform="matrix(0.250024,0,0,0.250024,0,53.755133)">
<stop offset="0" style="stop-color:rgb(100%,54.117647%,39.607843%);stop-opacity:1;"/>
<stop offset="1" style="stop-color:rgb(100%,43.921569%,26.27451%);stop-opacity:1;"/>
</linearGradient>
<linearGradient id="linear2" gradientUnits="userSpaceOnUse" x1="254" y1="233.5" x2="254" y2="-168.666656" >
<stop offset="0" style="stop-color:rgb(40.392157%,22.745098%,71.764706%);stop-opacity:1;"/>
<stop offset="1" style="stop-color:rgb(49.411765%,34.117647%,76.078431%);stop-opacity:1;"/>
</linearGradient>
<linearGradient id="linear3" gradientUnits="userSpaceOnUse" x1="285.75" y1="191.166672" x2="285.75" y2="-147.5" >
<stop offset="0" style="stop-color:rgb(100%,54.117647%,39.607843%);stop-opacity:1;"/>
<stop offset="1" style="stop-color:rgb(100%,43.921569%,26.27451%);stop-opacity:1;"/>
</linearGradient>
<linearGradient id="linear4" gradientUnits="userSpaceOnUse" x1="253.999985" y1="233.5" x2="253.999985" y2="-105.166672" gradientTransform="matrix(1,0,0,1,84.666679,0)">
<stop offset="0" style="stop-color:rgb(93.72549%,32.54902%,31.372549%);stop-opacity:1;"/>
<stop offset="1" style="stop-color:rgb(89.803922%,45.098039%,45.098039%);stop-opacity:1;"/>
</linearGradient>
<linearGradient id="linear5" gradientUnits="userSpaceOnUse" x1="275.166656" y1="233.5" x2="275.166656" y2="-105.166672" >
<stop offset="0" style="stop-color:rgb(93.72549%,32.54902%,31.372549%);stop-opacity:1;"/>
<stop offset="1" style="stop-color:rgb(89.803922%,45.098039%,45.098039%);stop-opacity:1;"/>
</linearGradient>
<linearGradient id="linear6" gradientUnits="userSpaceOnUse" x1="253.999985" y1="233.5" x2="253.999985" y2="-105.166656" gradientTransform="matrix(1,0,0,1,-84.666656,0)">
<stop offset="0" style="stop-color:rgb(93.72549%,32.54902%,31.372549%);stop-opacity:1;"/>
<stop offset="1" style="stop-color:rgb(89.803922%,45.098039%,45.098039%);stop-opacity:1;"/>
</linearGradient>
</defs>
<g id="surface1">
<path style=" stroke:none;fill-rule:nonzero;fill:url(#linear0);" d="M 34.398438 112.136719 L 92.613281 112.136719 L 92.613281 117.429688 L 34.398438 117.429688 Z M 34.398438 112.136719 "/>
<path style=" stroke:none;fill-rule:nonzero;fill:url(#radial0);" d="M 92.613281 112.136719 L 103.199219 112.136719 L 103.199219 106.84375 L 92.613281 106.84375 Z M 92.613281 112.136719 "/>
<path style=" stroke:none;fill-rule:nonzero;fill:url(#radial1);" d="M 34.398438 112.136719 L 23.816406 112.136719 L 23.816406 117.429688 L 34.398438 117.429688 Z M 34.398438 112.136719 "/>
<path style=" stroke:none;fill-rule:nonzero;fill:url(#radial2);" d="M 34.398438 112.136719 L 23.816406 112.136719 L 23.816406 106.84375 L 34.398438 106.84375 Z M 34.398438 112.136719 "/>
<path style=" stroke:none;fill-rule:nonzero;fill:url(#radial3);" d="M 92.613281 112.136719 L 103.199219 112.136719 L 103.199219 117.429688 L 92.613281 117.429688 Z M 92.613281 112.136719 "/>
<path style=" stroke:none;fill-rule:nonzero;fill:url(#linear1);" d="M 29.105469 27.460938 L 97.90625 27.460938 C 100.828125 27.460938 103.199219 29.832031 103.199219 32.753906 L 103.199219 106.84375 C 103.199219 109.765625 100.828125 112.136719 97.90625 112.136719 L 29.105469 112.136719 C 26.183594 112.136719 23.816406 109.765625 23.816406 106.84375 L 23.816406 32.753906 C 23.816406 29.832031 26.183594 27.460938 29.105469 27.460938 Z M 29.105469 27.460938 "/>
<path style=" stroke:none;fill-rule:nonzero;fill:rgb(0%,0%,0%);fill-opacity:0.196078;" d="M 23.816406 100.890625 L 103.199219 100.890625 L 103.199219 101.550781 L 23.816406 101.550781 Z M 23.816406 100.890625 "/>
<path style=" stroke:none;fill-rule:nonzero;fill:rgb(90.196079%,90.196079%,90.196079%);fill-opacity:0.588235;" d="M 23.816406 101.550781 L 103.199219 101.550781 L 103.199219 102.210938 L 23.816406 102.210938 Z M 23.816406 101.550781 "/>
<path style=" stroke:none;fill-rule:nonzero;fill:rgb(12.941177%,12.941177%,12.941177%);fill-opacity:0.992157;" d="M 23.816406 101.21875 L 103.199219 101.21875 L 103.199219 101.882812 L 23.816406 101.882812 Z M 23.816406 101.21875 "/>
<path style="fill-rule:nonzero;fill:url(#linear2);stroke-width:3;stroke-linecap:round;stroke-linejoin:miter;stroke:rgb(12.941177%,12.941177%,12.941177%);stroke-opacity:1;stroke-miterlimit:4;" d="M 254.006994 -168.660675 C 265.693378 -168.660675 275.161223 -159.192829 275.161223 -147.506445 C 275.161223 -135.804438 265.693378 -126.336592 254.006994 -126.336592 C 242.304986 -126.336592 232.83714 -135.804438 232.83714 -147.506445 C 232.83714 -159.192829 242.304986 -168.660675 254.006994 -168.660675 Z M 254.006994 -168.660675 " transform="matrix(0.250024,0,0,0.250024,0,53.755133)"/>
<path style="fill-rule:nonzero;fill:url(#linear3);stroke-width:3;stroke-linecap:round;stroke-linejoin:miter;stroke:rgb(12.941177%,12.941177%,12.941177%);stroke-opacity:1;stroke-miterlimit:4;" d="M 105.833643 -147.506445 L 402.16472 -147.506445 C 413.851104 -147.506445 423.334574 -138.022976 423.334574 -126.336592 C 423.334574 -114.650208 413.851104 -105.166739 402.16472 -105.166739 L 105.833643 -105.166739 C 94.147259 -105.166739 84.66379 -114.650208 84.66379 -126.336592 C 84.66379 -138.022976 94.147259 -147.506445 105.833643 -147.506445 Z M 105.833643 -147.506445 " transform="matrix(0.250024,0,0,0.250024,0,53.755133)"/>
<path style="fill-rule:nonzero;fill:url(#linear4);stroke-width:3;stroke-linecap:round;stroke-linejoin:miter;stroke:rgb(12.941177%,12.941177%,12.941177%);stroke-opacity:1;stroke-miterlimit:4;" d="M 338.670784 -62.827032 C 350.357168 -62.827032 359.840637 -53.359186 359.840637 -41.672802 L 359.840637 148.840255 C 359.840637 160.526639 350.357168 169.994485 338.670784 169.994485 C 326.9844 169.994485 317.50093 160.526639 317.50093 148.840255 L 317.50093 -41.672802 C 317.50093 -53.359186 326.9844 -62.827032 338.670784 -62.827032 Z M 338.670784 -62.827032 " transform="matrix(0.250024,0,0,0.250024,0,53.755133)"/>
<path style=" stroke:none;fill-rule:nonzero;fill:rgb(90.196079%,90.196079%,90.196079%);fill-opacity:0.392157;" d="M 26.460938 17.246094 C 23.527344 17.246094 21.167969 19.609375 21.167969 22.539062 L 21.167969 23.203125 C 21.167969 20.269531 23.527344 17.910156 26.460938 17.910156 L 100.550781 17.910156 C 103.484375 17.910156 105.84375 20.269531 105.84375 23.203125 L 105.84375 22.539062 C 105.84375 19.609375 103.484375 17.246094 100.550781 17.246094 Z M 26.460938 17.246094 "/>
<path style=" stroke:none;fill-rule:nonzero;fill:rgb(0%,0%,0%);fill-opacity:0.196078;" d="M 26.460938 27.0625 C 23.527344 27.0625 21.167969 24.699219 21.167969 21.769531 L 21.167969 21.105469 C 21.167969 24.039062 23.527344 26.398438 26.460938 26.398438 L 100.550781 26.398438 C 103.484375 26.398438 105.84375 24.039062 105.84375 21.105469 L 105.84375 21.769531 C 105.84375 24.699219 103.484375 27.0625 100.550781 27.0625 Z M 26.460938 27.0625 "/>
<path style=" stroke:none;fill-rule:nonzero;fill:rgb(20%,20%,20%);fill-opacity:1;" d="M 26.460938 16.5 C 23.328125 16.5 20.792969 19.035156 20.792969 22.167969 C 20.792969 25.300781 23.328125 27.835938 26.460938 27.835938 L 100.550781 27.835938 C 103.683594 27.835938 106.21875 25.300781 106.21875 22.167969 C 106.21875 19.035156 103.683594 16.5 100.550781 16.5 Z M 26.460938 17.25 L 100.550781 17.25 C 103.28125 17.25 105.46875 19.4375 105.46875 22.167969 C 105.46875 24.898438 103.28125 27.085938 100.550781 27.085938 L 26.460938 27.085938 C 23.730469 27.085938 21.542969 24.898438 21.542969 22.167969 C 21.542969 19.4375 23.730469 17.25 26.460938 17.25 Z M 26.460938 17.25 "/>
<path style=" stroke:none;fill-rule:nonzero;fill:rgb(90.196079%,90.196079%,90.196079%);fill-opacity:0.392157;" d="M 29.105469 27.808594 C 26.175781 27.808594 23.816406 30.167969 23.816406 33.101562 L 23.816406 33.761719 C 23.816406 30.832031 26.175781 28.46875 29.105469 28.46875 L 97.90625 28.46875 C 100.835938 28.46875 103.199219 30.832031 103.199219 33.761719 L 103.199219 33.101562 C 103.199219 30.167969 100.835938 27.808594 97.90625 27.808594 Z M 29.105469 27.808594 "/>
<path style=" stroke:none;fill-rule:nonzero;fill:rgb(0%,0%,0%);fill-opacity:0.196078;" d="M 29.105469 111.734375 C 26.175781 111.734375 23.816406 109.375 23.816406 106.441406 L 23.816406 105.78125 C 23.816406 108.714844 26.175781 111.074219 29.105469 111.074219 L 97.90625 111.074219 C 100.835938 111.074219 103.199219 108.714844 103.199219 105.78125 L 103.199219 106.441406 C 103.199219 109.375 100.835938 111.734375 97.90625 111.734375 Z M 29.105469 111.734375 "/>
<path style="fill:none;stroke-width:3;stroke-linecap:round;stroke-linejoin:miter;stroke:rgb(12.941177%,12.941177%,12.941177%);stroke-opacity:1;stroke-miterlimit:4;" d="M 116.410758 -105.166739 L 391.587605 -105.166739 C 403.273989 -105.166739 412.757459 -95.683269 412.757459 -83.996885 L 412.757459 212.334192 C 412.757459 224.020576 403.273989 233.504045 391.587605 233.504045 L 116.410758 233.504045 C 104.724374 233.504045 95.256528 224.020576 95.256528 212.334192 L 95.256528 -83.996885 C 95.256528 -95.683269 104.724374 -105.166739 116.410758 -105.166739 Z M 116.410758 -105.166739 " transform="matrix(0.250024,0,0,0.250024,0,53.755133)"/>
<path style="fill-rule:nonzero;fill:url(#linear5);stroke-width:3;stroke-linecap:round;stroke-linejoin:miter;stroke:rgb(12.941177%,12.941177%,12.941177%);stroke-opacity:1;stroke-miterlimit:4;" d="M 254.006994 -62.827032 C 265.693378 -62.827032 275.161223 -53.359186 275.161223 -41.672802 L 275.161223 148.840255 C 275.161223 160.526639 265.693378 169.994485 254.006994 169.994485 C 242.304986 169.994485 232.83714 160.526639 232.83714 148.840255 L 232.83714 -41.672802 C 232.83714 -53.359186 242.304986 -62.827032 254.006994 -62.827032 Z M 254.006994 -62.827032 " transform="matrix(0.250024,0,0,0.250024,0,53.755133)"/>
<path style="fill-rule:nonzero;fill:url(#linear6);stroke-width:3;stroke-linecap:round;stroke-linejoin:miter;stroke:rgb(12.941177%,12.941177%,12.941177%);stroke-opacity:1;stroke-miterlimit:4;" d="M 169.32758 -62.827032 C 181.029588 -62.827032 190.497433 -53.359186 190.497433 -41.672802 L 190.497433 148.840255 C 190.497433 160.526639 181.029588 169.994485 169.32758 169.994485 C 157.641196 169.994485 148.17335 160.526639 148.17335 148.840255 L 148.17335 -41.672802 C 148.17335 -53.359186 157.641196 -62.827032 169.32758 -62.827032 Z M 169.32758 -62.827032 " transform="matrix(0.250024,0,0,0.250024,0,53.755133)"/>
</g>
</svg>

<svg xmlns="http://www.w3.org/2000/svg" width="128pt" height="128pt" viewBox="0 0 128 128"><defs><linearGradient id="a" gradientUnits="userSpaceOnUse" x1="254" y1="233.5" x2="254" y2="254.667" gradientTransform="matrix(.25002 0 0 .25002 0 53.755)"><stop offset="0" stop-opacity=".275"/><stop offset="1" stop-opacity="0"/></linearGradient><radialGradient id="b" gradientUnits="userSpaceOnUse" cx="450.909" cy="189.579" fx="450.909" fy="189.579" r="21.167" gradientTransform="matrix(0 -.31253 -.56255 0 197.938 254.381)"><stop offset="0" stop-opacity=".314"/><stop offset=".222" stop-opacity=".275"/><stop offset="1" stop-opacity="0"/></radialGradient><radialGradient id="c" gradientUnits="userSpaceOnUse" cx="450.909" cy="189.579" fx="450.909" fy="189.579" r="21.167" gradientTransform="matrix(0 .31253 .56255 0 -70.926 -30.11)"><stop offset="0" stop-opacity=".314"/><stop offset=".222" stop-opacity=".275"/><stop offset="1" stop-opacity="0"/></radialGradient><radialGradient id="d" gradientUnits="userSpaceOnUse" cx="450.909" cy="189.579" fx="450.909" fy="189.579" r="21.167" gradientTransform="matrix(0 -.31253 .56255 0 -70.926 254.381)"><stop offset="0" stop-opacity=".314"/><stop offset=".222" stop-opacity=".275"/><stop offset="1" stop-opacity="0"/></radialGradient><radialGradient id="e" gradientUnits="userSpaceOnUse" cx="450.909" cy="189.579" fx="450.909" fy="189.579" r="21.167" gradientTransform="matrix(0 .31253 -.56255 0 197.938 -30.11)"><stop offset="0" stop-opacity=".314"/><stop offset=".222" stop-opacity=".275"/><stop offset="1" stop-opacity="0"/></radialGradient><linearGradient id="f" gradientUnits="userSpaceOnUse" x1="254" y1="-105.167" x2="254" y2="233.5" gradientTransform="matrix(.25002 0 0 .25002 0 53.755)"><stop offset="0" stop-color="#ff8a65"/><stop offset="1" stop-color="#ff7043"/></linearGradient><linearGradient id="g" gradientUnits="userSpaceOnUse" x1="254" y1="233.5" x2="254" y2="-168.667"><stop offset="0" stop-color="#673ab7"/><stop offset="1" stop-color="#7e57c2"/></linearGradient><linearGradient id="h" gradientUnits="userSpaceOnUse" x1="285.75" y1="191.167" x2="285.75" y2="-147.5"><stop offset="0" stop-color="#ff8a65"/><stop offset="1" stop-color="#ff7043"/></linearGradient><linearGradient id="i" gradientUnits="userSpaceOnUse" x1="254" y1="233.5" x2="254" y2="-105.167" gradientTransform="translate(84.667)"><stop offset="0" stop-color="#ef5350"/><stop offset="1" stop-color="#e57373"/></linearGradient><linearGradient id="j" gradientUnits="userSpaceOnUse" x1="275.167" y1="233.5" x2="275.167" y2="-105.167"><stop offset="0" stop-color="#ef5350"/><stop offset="1" stop-color="#e57373"/></linearGradient><linearGradient id="k" gradientUnits="userSpaceOnUse" x1="254" y1="233.5" x2="254" y2="-105.167" gradientTransform="translate(-84.667)"><stop offset="0" stop-color="#ef5350"/><stop offset="1" stop-color="#e57373"/></linearGradient></defs><path d="M34.398 112.137h58.215v5.293H34.398zm0 0" fill="url(#a)"/><path d="M92.613 112.137H103.2v-5.293H92.613zm0 0" fill="url(#b)"/><path d="M34.398 112.137H23.816v5.293h10.582zm0 0" fill="url(#c)"/><path d="M34.398 112.137H23.816v-5.293h10.582zm0 0" fill="url(#d)"/><path d="M92.613 112.137H103.2v5.293H92.613zm0 0" fill="url(#e)"/><path d="M29.105 27.46h68.801a5.295 5.295 0 0 1 5.293 5.294v74.09a5.295 5.295 0 0 1-5.293 5.293h-68.8a5.291 5.291 0 0 1-5.29-5.293v-74.09a5.291 5.291 0 0 1 5.29-5.293zm0 0" fill="url(#f)"/><path d="M23.816 100.89H103.2v.66H23.816zm0 0" fill-opacity=".196"/><path d="M23.816 101.55H103.2v.66H23.816zm0 0" fill="#e6e6e6" fill-opacity=".588"/><path d="M23.816 101.219H103.2v.664H23.816zm0 0" fill="#212121" fill-opacity=".992"/><path d="M254.007-168.66c11.686 0 21.154 9.467 21.154 21.154 0 11.702-9.468 21.17-21.154 21.17-11.702 0-21.17-9.468-21.17-21.17 0-11.687 9.468-21.155 21.17-21.155zm0 0" transform="matrix(.25002 0 0 .25002 0 53.755)" fill="url(#g)" stroke-width="3" stroke-linecap="round" stroke="#212121"/><path d="M105.834-147.506h296.33c11.687 0 21.17 9.483 21.17 21.17 0 11.686-9.483 21.17-21.17 21.17h-296.33c-11.687 0-21.17-9.484-21.17-21.17 0-11.687 9.483-21.17 21.17-21.17zm0 0" transform="matrix(.25002 0 0 .25002 0 53.755)" fill="url(#h)" stroke-width="3" stroke-linecap="round" stroke="#212121"/><path d="M338.67-62.827c11.687 0 21.17 9.468 21.17 21.154V148.84c0 11.687-9.483 21.154-21.17 21.154-11.686 0-21.17-9.467-21.17-21.154V-41.673c0-11.686 9.484-21.154 21.17-21.154zm0 0" transform="matrix(.25002 0 0 .25002 0 53.755)" fill="url(#i)" stroke-width="3" stroke-linecap="round" stroke="#212121"/><path d="M26.46 17.246a5.282 5.282 0 0 0-5.292 5.293v.664a5.28 5.28 0 0 1 5.293-5.293h74.09a5.28 5.28 0 0 1 5.293 5.293v-.664c0-2.93-2.36-5.293-5.293-5.293zm0 0" fill="#e6e6e6" fill-opacity=".392"/><path d="M26.46 27.063a5.282 5.282 0 0 1-5.292-5.293v-.665a5.28 5.28 0 0 0 5.293 5.293h74.09a5.28 5.28 0 0 0 5.293-5.293v.665c0 2.93-2.36 5.293-5.293 5.293zm0 0" fill-opacity=".196"/><path d="M26.46 16.5a5.665 5.665 0 0 0-5.667 5.668 5.665 5.665 0 0 0 5.668 5.668h74.09a5.665 5.665 0 0 0 5.668-5.668 5.665 5.665 0 0 0-5.668-5.668zm0 .75h74.09a4.9 4.9 0 0 1 4.919 4.918 4.9 4.9 0 0 1-4.918 4.918H26.46a4.9 4.9 0 0 1-4.918-4.918 4.9 4.9 0 0 1 4.918-4.918zm0 0" fill="#333"/><path d="M29.105 27.809c-2.93 0-5.289 2.359-5.289 5.293v.66c0-2.93 2.36-5.293 5.29-5.293h68.8a5.285 5.285 0 0 1 5.293 5.293v-.66a5.282 5.282 0 0 0-5.293-5.293zm0 0" fill="#e6e6e6" fill-opacity=".392"/><path d="M29.105 111.734c-2.93 0-5.289-2.359-5.289-5.293v-.66a5.279 5.279 0 0 0 5.29 5.293h68.8c2.93 0 5.293-2.36 5.293-5.293v.66a5.282 5.282 0 0 1-5.293 5.293zm0 0" fill-opacity=".196"/><path d="M29.105 27.46h68.801a5.295 5.295 0 0 1 5.293 5.294v74.09a5.295 5.295 0 0 1-5.293 5.293h-68.8a5.291 5.291 0 0 1-5.29-5.293v-74.09a5.291 5.291 0 0 1 5.29-5.293zm0 0" fill="none" stroke-width=".7500600000000001" stroke-linecap="round" stroke="#212121"/><path d="M254.007-62.827c11.686 0 21.154 9.468 21.154 21.154V148.84c0 11.687-9.468 21.154-21.154 21.154-11.702 0-21.17-9.467-21.17-21.154V-41.673c0-11.686 9.468-21.154 21.17-21.154zm0 0" transform="matrix(.25002 0 0 .25002 0 53.755)" fill="url(#j)" stroke-width="3" stroke-linecap="round" stroke="#212121"/><path d="M169.328-62.827c11.702 0 21.17 9.468 21.17 21.154V148.84c0 11.687-9.468 21.154-21.17 21.154-11.687 0-21.155-9.467-21.155-21.154V-41.673c0-11.686 9.468-21.154 21.155-21.154zm0 0" transform="matrix(.25002 0 0 .25002 0 53.755)" fill="url(#k)" stroke-width="3" stroke-linecap="round" stroke="#212121"/></svg>
